X: 7193
T: Cillian's Midnight Dip
R: reel
M: 4/4
K: Dmixolydian
BE ~E2 BcdB|AF ~F2 DFAF|Eeed egfe|dBAF EFGA|
BE ~E2 BcdB|AF ~F2 DFAF|Eeed egfe|dBAF FE ~E2||
ed B/c/d eaag|fB ~B2 gefd|efge abag|edBA Be ~e2|
ed B/c/d eaag|fB ~B2 g2 e/f/g|abag efge|dBAF FEFA||

